coreui/free/cil-battery-slash.svg

<svg xmlns="http://www.w3.org/2000/svg" viewBox="0 0 512 512">
  <path fill="var(--ci-primary-color, currentColor)" d="M432,176V119.59A23.825,23.825,0,0,0,408,96H163.882l32,32H400v80h64V312H416v32h80V176Z" class="ci-primary"/>
  <path fill="var(--ci-primary-color, currentColor)" d="M150.627,128l-32-32-80-80H16V38.627L73.373,96H39.986a23.825,23.825,0,0,0-24,23.59V400.41a23.825,23.825,0,0,0,24,23.59H401.373l72,72H496V473.373L266.563,243.937ZM47.986,392V128h57.387l264,264Z" class="ci-primary"/>
</svg>

<svg viewBox="0 0 512 512" xmlns="http://www.w3.org/2000/svg"><g><path d="M432 176v-56.41 0c-.13-13.14-10.87-23.69-24-23.59H163.88l32 32h204.11v80h64v104h-48v32h80V176Z"/><path d="M150.627 128l-32-32 -80-80H15.99v22.62L73.37 95.993H39.98v0c-13.14-.1-23.88 10.45-24 23.59v280.82l0 0c.12 13.13 10.86 23.68 24 23.59H401.37l72 72h22.62v-22.63l-229.437-229.44ZM47.97 392V128h57.387l264 264Z"/></g></svg>
